packages/core/src/svgs/tokens/mono/HAPI.svg

<svg width="24" height="24" viewBox="0 0 24 24" fill="none" xmlns="http://www.w3.org/2000/svg">
<path fill-rule="evenodd" clip-rule="evenodd" d="M11.3625 7.7144C11.3167 8.66296 11.271 10.4001 11.3739 11.3201C11.4425 11.9486 11.6025 12.7201 11.8539 13.4344C12.0489 14.0817 12.407 14.6681 12.8939 15.1371C13.2539 15.4286 14.0653 15.8801 14.951 16.3143C15.3795 16.5314 15.8252 16.7429 16.231 16.9314L17.2424 17.2C17.5281 17.2858 18.1795 17.4 18.4424 17.1428C18.7852 16.8343 18.4995 16.0971 18.1681 15.4058C17.9109 14.8514 16.7624 14.7486 16.2252 14.7714C16.0652 14.7486 15.7395 14.6914 15.7395 14.6286C15.7452 14.5714 15.831 14.5429 15.8767 14.5371C17.8252 14.7258 19.2881 14.2686 19.7795 14.0171C19.8024 13.9943 19.8367 13.9601 19.8595 13.9201L19.8767 13.6114C19.7567 13.5258 19.4139 13.5886 19.1224 13.6401C19.0195 13.6629 18.9224 13.6801 18.8481 13.6858C18.6539 13.7086 17.4767 13.8001 16.5967 13.8572C16.0767 13.9429 15.5682 13.9714 15.4595 13.9429C15.2882 13.9029 14.431 13.4458 14.031 13.2172C13.7046 13.2318 13.3777 13.201 13.0595 13.1258C12.9682 13.0629 12.5853 12.7086 12.6025 12.5944C12.6139 12.5029 12.6882 12.4972 12.7225 12.5086C12.831 12.6401 13.0882 12.9314 13.2939 13.0229C13.4939 13.1144 14.0367 12.9829 14.2767 12.9086C14.5452 12.7601 15.1682 12.4229 15.551 12.2344C15.9224 12.0629 16.191 11.6172 16.3339 11.3772L16.431 11.2344C16.5052 11.1429 16.5739 11.1944 16.6024 11.2344C16.5224 11.3772 16.3682 11.7201 16.3339 11.9429C16.2995 12.1658 16.6082 12.2286 16.7624 12.2344C17.1167 11.6514 18.3852 11.4914 18.9681 11.4914C18.9852 11.4686 19.0081 11.3772 18.9681 11.2344C18.9224 11.0514 18.0995 10.1372 17.7167 9.73719C17.4139 9.41724 17.3795 8.82296 17.4024 8.5601C17.4539 8.3601 17.6652 7.9544 18.0995 7.89725C18.3852 7.86297 18.6367 7.93725 18.8081 8.01154C18.6569 7.71553 18.5008 7.42215 18.3395 7.13155C18.2847 7.03986 18.2236 6.95204 18.1567 6.86869L17.5624 7.78297C17.1224 7.85155 16.3052 7.78297 15.9452 7.34868C15.5624 6.89156 15.551 6.43441 15.5682 6.31442C14.7282 6.23442 12.7682 6.42299 11.3625 7.72011V7.7144ZM18.3109 6.62299L18.3909 6.70869C18.4481 6.78298 18.5167 6.88012 18.5795 6.98298C18.7052 7.19441 18.8481 7.45726 18.9795 7.72583L19.2367 8.2401L19.3624 8.49725C19.4767 8.72582 19.5624 8.89153 19.6081 8.95439C19.6709 9.04581 19.6995 9.17153 19.7052 9.29153C19.7167 9.41153 19.7109 9.55438 19.6995 9.69146C19.6767 9.93146 19.6309 10.1772 19.5852 10.3601C19.6709 10.4344 19.7739 10.5259 19.8709 10.6229C20.0024 10.7429 20.1339 10.8801 20.2024 10.9886C20.2481 11.0686 20.2709 11.1714 20.2767 11.2686C20.2881 11.3714 20.2881 11.4858 20.2881 11.6058C20.2767 11.8344 20.2481 12.0858 20.2252 12.2458L20.1339 14.0571C20.0824 14.5543 19.9681 15.7029 19.9167 16.3714C19.8881 16.6858 19.7739 16.9429 19.6309 17.1543C19.6424 17.7943 19.2081 18.0114 18.9795 18.0343H17.071L16.4539 17.3486C16.0195 17.1486 15.5282 16.9143 15.0424 16.6743C14.911 16.8971 14.7795 17.2286 14.8539 17.52C14.951 17.8971 15.4995 18.6628 15.7624 19C15.591 19.7428 15.0539 21.3713 14.311 22C14.5282 21.48 14.8539 20.2171 14.3739 19.36C13.8025 18.3428 13.151 17.1828 13.7453 16.0058C13.3053 15.7658 12.9395 15.5371 12.7167 15.3543C12.1898 14.8523 11.8019 14.2223 11.591 13.5258C11.345 12.8228 11.1783 12.0944 11.0939 11.3544C11.0155 10.1749 11.01 8.99172 11.0767 7.81155C10.7053 7.04011 10.334 5.5487 11.4253 4.783C11.4995 4.76014 11.6482 4.79443 11.6425 5.10871C11.631 5.41728 12.3967 6.0687 12.7853 6.35441C12.8425 6.41156 13.0482 6.50299 13.4025 6.35441C13.1202 6.08972 12.8075 5.85954 12.471 5.6687C12.9625 5.22871 14.3682 4.62871 16.0824 5.77727L16.2824 5.59442C16.0139 5.39112 15.7175 5.22755 15.4024 5.10871C15.4595 4.85728 15.5795 4.33158 15.5682 4.20586C15.551 4.04587 15.8939 4.30872 15.9852 4.42301L16.7624 5.25728L20.8366 2.04017C20.8718 2.01261 20.9156 1.99842 20.9602 2.00014C21.0049 2.00186 21.0474 2.01938 21.0804 2.04957C21.1133 2.07975 21.1345 2.12066 21.1401 2.16498C21.1457 2.20931 21.1353 2.25418 21.1109 2.2916L18.3109 6.62299ZM16.431 6.21727C16.3395 6.14299 16.391 5.93157 16.431 5.87442L20.3852 2.61731L20.0595 2.94873C18.8309 4.20586 16.8652 6.21727 16.8082 6.26299C16.751 6.29727 16.551 6.30299 16.431 6.21727ZM7.37964 7.69725C7.73964 7.20011 8.81963 6.19442 10.2196 6.12584C10.151 6.58299 10.1282 7.60011 10.6025 8.02297C9.47677 7.48583 7.98534 7.58298 7.37964 7.69725ZM18.8767 8.14868L18.9852 8.36582L19.1109 8.62296C19.2195 8.8401 19.3167 9.03439 19.3795 9.12009C19.3967 9.14866 19.4195 9.20581 19.4252 9.31438C19.4367 9.41153 19.4309 9.53723 19.4195 9.66293C19.3967 9.92586 19.3395 10.2059 19.2939 10.3772L19.2709 10.4629L19.3395 10.5201L19.6824 10.8286C19.8081 10.9486 19.9167 11.0686 19.9681 11.1429C19.9739 11.1601 19.9909 11.2058 19.9967 11.2972C20.0023 11.603 19.9832 11.9088 19.9395 12.2114L19.9281 12.5658C19.8877 12.5845 19.8555 12.6169 19.8367 12.6572C19.7909 12.7658 19.7509 13.0458 19.7395 13.1714H19.3509L18.6539 12.3658L18.7224 12.2344C18.8881 12.1029 19.2195 11.7486 19.2024 11.3886C19.1909 11.0286 18.6481 10.4801 18.3795 10.2515C18.6652 10.2744 19.2481 10.2972 19.2709 10.2115C19.2939 10.1029 19.1052 9.62293 18.7224 9.57153C18.4081 9.53723 18.1509 9.76586 18.0539 9.88586C17.9509 9.61153 17.7739 9.02867 17.9167 8.84582L17.9739 8.78296C18.1452 8.56582 18.4195 8.21154 18.8767 8.14868ZM19.7967 14.5943C19.7567 14.6058 19.7224 14.6058 19.6939 14.5771C19.5795 14.4743 19.1909 14.6343 19.0195 14.7714C18.8767 14.8858 18.8995 15.1429 18.9281 15.2629L19.2139 16.1771C19.1909 16.3771 19.1681 16.8058 19.2652 16.9486C19.3224 17.0343 19.4195 16.9371 19.5052 16.8114C19.5739 16.6801 19.6195 16.5258 19.6309 16.3543C19.6709 15.8686 19.7452 15.1486 19.8024 14.5943H19.7967ZM17.9109 13.5886C17.8824 13.5829 17.8481 13.5314 17.8139 13.4858C17.8268 13.4738 17.8383 13.4604 17.8481 13.4458L17.9624 13.2514C18.1224 12.9772 18.2367 12.7772 18.3339 12.7944C18.3395 12.7944 18.3567 12.7944 18.3681 12.7829C18.5967 13.0001 18.8939 13.2972 18.8481 13.3772C18.7795 13.5029 17.9681 13.6058 17.9109 13.5886ZM14.6939 13.1601C14.6595 13.1201 14.6024 13.0344 14.6424 12.9772C14.6939 12.9144 15.9739 12.0914 16.0652 12.1029C16.111 12.1029 16.1967 12.1944 16.2824 12.2858C16.3739 12.3772 16.4652 12.4744 16.5224 12.4801L16.7224 12.4914C16.9852 12.4914 17.3909 12.5029 17.4309 12.5486C17.4709 12.6058 17.3739 12.8572 17.3167 12.9772C17.1852 13.1429 16.7852 13.4744 16.2367 13.5086C15.5567 13.5486 15.0252 13.4629 14.6939 13.1601ZM15.3452 7.77155C14.8839 7.63604 14.3907 7.65669 13.9422 7.83029C13.4938 8.00388 13.1153 8.3207 12.8653 8.73154C13.431 8.17725 13.8939 8.10297 14.5795 8.04582C15.2595 7.98868 16.2539 8.73154 16.3167 9.18296C16.3739 9.54295 16.1167 9.80013 15.9852 9.88586C15.7044 9.67946 15.3599 9.57837 15.012 9.60031C14.6642 9.62226 14.3351 9.76573 14.0825 10.0059C13.8995 10.1259 13.831 10.3659 15.0482 10.3601C16.2652 10.3487 16.6767 9.48009 16.7282 9.04581C16.8252 8.77154 16.6882 8.13154 15.3452 7.77155ZM6.3968 9.20009C5.93394 9.16581 5.25394 9.34866 4.97395 9.44009C5.86536 8.53154 6.85965 7.9601 8.21963 7.94868C9.30533 7.93725 10.5453 8.41154 11.0253 8.65154V9.20581C10.4996 9.28009 9.35677 9.44009 9.02533 9.44009C8.75677 9.44009 7.96249 9.36009 7.28821 9.29153C6.92822 9.25153 6.6025 9.21724 6.3968 9.20581V9.20009ZM3.86538 16.4571V15.6571C3.93968 14.9314 4.41395 13.3429 5.6768 12.8114C7.24822 12.1544 8.49391 11.5086 9.15677 10.9372C9.68819 10.4801 10.5396 9.82866 10.8996 9.56581C10.3796 9.68013 9.1682 9.90292 8.49391 9.80013C8.41763 9.78919 8.34144 9.77786 8.26534 9.76586C7.23679 9.59438 4.85967 9.20581 3.69396 10.9372C2.44254 12.8114 2.67684 14.6286 3.86538 16.4629V16.4571ZM4.29395 15.3543C3.86538 18.1086 6.18536 20.0114 7.39679 20.6228C6.86535 19.7828 6.65393 17.1543 8.00821 15.6343C9.76819 13.6572 9.88247 11.7314 9.72247 11.0114C9.20819 11.4629 7.81964 12.4686 6.39108 12.9029C4.96252 13.3372 4.40252 14.7143 4.29395 15.3543Z" fill="white"/>
</svg>

<svg xmlns="http://www.w3.org/2000/svg" width="24" height="24" fill="none" viewBox="0 0 24 24">
    <path fill="#fff" fill-rule="evenodd" d="M11.363 7.714c-.046.949-.092 2.686.01 3.606.07.629.23 1.4.48 2.114a3.94 3.94 0 0 0 1.04 1.703c.36.292 1.172.743 2.058 1.177.428.217.874.429 1.28.617l1.011.269c.286.086.938.2 1.2-.057.343-.309.058-1.046-.274-1.737-.257-.555-1.406-.657-1.943-.635-.16-.022-.486-.08-.486-.142.006-.058.092-.086.138-.092 1.948.189 3.411-.268 3.902-.52a.5.5 0 0 0 .08-.097l.018-.309c-.12-.085-.463-.022-.755.03-.102.022-.2.04-.274.045-.194.023-1.371.114-2.251.171-.52.086-1.029.114-1.138.086-.17-.04-1.028-.497-1.428-.726a3.5 3.5 0 0 1-.972-.091c-.09-.063-.474-.417-.457-.532.012-.091.086-.097.12-.085.109.131.366.422.572.514.2.091.743-.04.983-.114.268-.149.891-.486 1.274-.675.371-.171.64-.617.783-.857l.097-.143c.074-.091.143-.04.171 0-.08.143-.234.486-.268.709-.035.223.274.286.428.291.355-.583 1.623-.743 2.206-.743.017-.022.04-.114 0-.257-.046-.183-.869-1.097-1.251-1.497-.303-.32-.337-.914-.315-1.177.052-.2.263-.606.697-.663.286-.034.538.04.71.115a29 29 0 0 0-.47-.88 2 2 0 0 0-.182-.263l-.595.914c-.44.069-1.257 0-1.617-.434-.383-.457-.394-.915-.377-1.035-.84-.08-2.8.109-4.205 1.406zm6.948-1.091.08.086c.057.074.126.171.189.274.125.211.268.474.4.743l.257.514.125.257c.115.229.2.395.246.457a.67.67 0 0 1 .097.338c.012.12.006.262-.005.4-.023.24-.07.485-.115.668.086.074.189.166.286.263.131.12.263.257.331.366.046.08.069.182.075.28.011.102.011.217.011.337a8 8 0 0 1-.063.64l-.091 1.811a112 112 0 0 0-.217 2.314 1.64 1.64 0 0 1-.286.783c.011.64-.423.857-.651.88h-1.91l-.617-.685c-.434-.2-.926-.435-1.412-.675-.131.223-.262.555-.188.846.097.377.646 1.143.908 1.48-.171.743-.708 2.371-1.451 3 .217-.52.543-1.783.063-2.64-.572-1.017-1.223-2.177-.629-3.354-.44-.24-.805-.469-1.028-.652a4.2 4.2 0 0 1-1.126-1.828 10 10 0 0 1-.497-2.172 29 29 0 0 1-.017-3.542c-.372-.772-.743-2.263.348-3.029.074-.023.223.011.217.326-.011.308.755.96 1.143 1.245.057.058.263.149.617 0a5 5 0 0 0-.931-.685c.492-.44 1.897-1.04 3.611.108l.2-.183a3.5 3.5 0 0 0-.88-.485c.058-.252.178-.777.166-.903-.017-.16.326.103.417.217l.777.834 4.075-3.217a.189.189 0 0 1 .274.252zm-1.88-.406c-.091-.074-.04-.285 0-.343l3.954-3.257-.326.332a597 597 0 0 1-3.25 3.314c-.058.034-.258.04-.378-.046M7.38 7.697c.36-.497 1.44-1.503 2.84-1.571-.069.457-.092 1.474.382 1.897-1.125-.537-2.617-.44-3.222-.326m11.497.452.108.217.126.257c.108.217.206.411.268.497a.4.4 0 0 1 .046.194c.012.098.006.223-.006.349-.022.263-.08.543-.125.714l-.023.086.069.057.342.309c.126.12.235.24.286.314.006.017.023.063.029.154a6 6 0 0 1-.058.914l-.01.355a.2.2 0 0 0-.092.091c-.046.109-.086.389-.098.514h-.388l-.697-.805.068-.132c.166-.131.497-.485.48-.845-.011-.36-.554-.909-.823-1.137.286.022.87.045.892-.04.023-.11-.166-.59-.549-.64-.314-.035-.571.194-.668.314-.103-.274-.28-.857-.137-1.04l.057-.063c.171-.217.445-.571.903-.634m.92 6.445c-.04.012-.075.012-.103-.017-.114-.103-.503.057-.674.194-.143.115-.12.372-.092.492l.286.914c-.023.2-.046.629.051.772.057.085.154-.012.24-.138.069-.13.114-.285.126-.457.04-.485.114-1.205.171-1.76zM17.91 13.59c-.029-.006-.063-.058-.097-.103a.2.2 0 0 0 .034-.04l.114-.195c.16-.274.275-.474.372-.457.006 0 .023 0 .034-.011.229.217.526.514.48.594-.069.126-.88.229-.937.212m-3.217-.429c-.035-.04-.092-.126-.052-.183.052-.063 1.332-.886 1.423-.874.046 0 .132.091.217.183.092.091.183.188.24.194l.2.011c.263 0 .669.012.709.058.04.057-.057.308-.114.428a1.6 1.6 0 0 1-1.08.532c-.68.04-1.212-.046-1.543-.349m.651-5.388a2.18 2.18 0 0 0-2.48.96c.566-.555 1.029-.629 1.714-.686.68-.057 1.675.686 1.738 1.137.057.36-.2.617-.332.703a1.485 1.485 0 0 0-1.902.12c-.184.12-.252.36.965.354 1.217-.011 1.629-.88 1.68-1.314.097-.274-.04-.914-1.383-1.274M6.397 9.2c-.463-.034-1.143.149-1.423.24.891-.908 1.886-1.48 3.246-1.491 1.085-.012 2.325.463 2.805.703v.554c-.525.074-1.668.234-2 .234-.268 0-1.063-.08-1.737-.148-.36-.04-.686-.075-.891-.086zm-2.532 7.257v-.8c.075-.726.549-2.314 1.812-2.846 1.571-.657 2.817-1.302 3.48-1.874A35 35 0 0 1 10.9 9.566c-.52.114-1.732.337-2.406.234q-.115-.015-.229-.034c-1.028-.172-3.405-.56-4.571 1.171-1.251 1.874-1.017 3.692.171 5.526zm.429-1.103c-.429 2.755 1.891 4.657 3.103 5.269-.532-.84-.743-3.469.611-4.989 1.76-1.977 1.874-3.903 1.714-4.623-.514.452-1.902 1.458-3.33 1.892-1.43.434-1.99 1.811-2.098 2.451" clip-rule="evenodd"/>
</svg>
